X:1
T: Lady Carmichael of Castle Craig
T: Lady Carmichael of Castle Craig's Strathspey
C:John Gow
R:Strathspey
Q: 128
K:C
M:4/4
L:1/16
|:c3d e3c Ac3 G4|Ac3 G3e d3c d3e|c3d e3c Ac3 G4|Ac3 G3e d4 c4|
c3d e3c Ac3 G4|Ac3 G3e d3c d3e|c3d e3c Ac3 G4|Ac3 G3e d4 c4|
c3d e3f gc3 e4|f3d e3c d3c Ad3|c3d e3f gc3 e4|f3d e3c d4 c4|
c3d e3f gc3 e4|fa3 eg3 d3c d3e|ce3 df3 eg3 fa3|ge3 f3e d4 c4:|
